X:1
T:My little suede shoes
M:4/4
L:1/8
C:Charlie Parker
Q:1/4=148
K:Eb
%%text (medium latin)
%%vskip 20
P:A
B,EG || "Fm7"FFFF "Bb7"EF zG | "Eb6"z4 zB,EG | "Fm7"FFFF "Bb7"EF zE | "Eb6"z4 zB,EG |
"Fm7"FFFF "Bb7"EF zG | "Gm7"zB3 "C7"=A2_A2 | "Fm7"GGGG "Bb7"FFz E | "Eb6"z4 z B,EG |
P:A
"Fm7"FFFF "Bb7"EF zG | "Eb6"z4 zB,EG | "Fm7"FFFF "Bb7"EF zE | "Eb6"z4 zB,EG |
"Fm7"FFFF "Bb7"EF zG | "Gm7"zB3 "C7"=A2_A2 | "Fm7"GGGG "Bb7"FFz E | "Eb6"z4 zBcd ||
P:B
"Ab6"eeee cA zd | "Gm7"zd3 "C7"BGz2 | "Fm7"cccc "Bb7"AF zB- | "Eb6"B4 zBcd |
"Ab6"eeee cA zd | "Gm7"zd3 "C7"BGz2 | "Fm7"cccc "Bb7"AF GE- | "Eb6"E4 zB,EG ||
P:A
"Fm7"FFFF "Bb7"EF zG | "Eb6"z4 zB,EG | "Fm7"FFFF "Bb7"EF zE | "Eb6"z4 zB,EG |
"Fm7"FFFF "Bb7"EF zG | "Gm7"zB3 "C7"=A2_A2 | "Fm7"GGGG "Bb7"FFz E | "Eb6"z8 |]
